X:1
T:Title
%%score { ( 1 4 5 6 ) | ( 2 3 7 ) }
L:1/8
M:6/8
K:G
V:1 treble nm="Grand Piano"
V:4 treble 
V:5 treble 
V:6 treble 
V:2 bass 
V:3 bass 
V:7 bass 
V:1
 z3 z2[Q:1/4=84] B/A/ | [B,G]>GG GFE | [CE] D2- D2 D/D/ | G2 G [FA]GA |[M:5/8] B-B- B3 | %5
[M:1/8] G/G/ |[M:3/4] [Ec]>c cc dc | [Ec]B- B3 B/B/ | [FA]2 d^c z d/e/ |[M:5/8] [Fd]-[Fd]- [Fd]3 | %10
[M:5/32] B/-[F-A-B]/4[FA]/ |[M:3/4] z6 | z2 z2 z [Ac]3/4 z/4 | %13
 (7:8:7[FA]3/2-[FA]3/8A3/4A3/4G-G/8[DFA]3/4 |[M:5/8] [GB]-[GB]- [GB]3- |[M:1/8] [GB]/4 z/4 z/ | %16
[M:3/4] (9:8:11[G,DG]-[G,DG]/8[G,DG]-[G,DG]/8 A-A/8B3/8-B3/2-B3/8G3/8G3/4 | %17
[M:7/8] z [Gc]-[Gc]/4 z/4 z/ e- e2- e/4 z/4 z/ | %18
[M:13/16] (7:8:9[Dd]3/2-[Dd]/8[GB]3/4-[GB]/16[Fd]3/2-[Fd]/8 z3/4 z/16 [EA]3/8- z/32 (7:8:2[FB]3/8-[FB]/32 | %19
[M:5/8] [B,G]-[B,G]- [B,G]3 |] %20
V:2
 z3 z2 D/C/ | z z/ B,/B, B,DC | z B,2- B,2 B,/B,/ | B,2 D z[K:treble] EF | %4
[M:5/8] [G,DG]-[G,DG]- [G,DG]3 |[M:1/8] z/ F/ |[M:3/4] z z/ E/ EE FE | z D- D3 G/G/ | %8
 z2 F[A,E] z F/G/ |[M:5/8][K:bass] [D,A,]-[D,A,]- [D,A,]3 |[M:5/32] D3/4 z/ | %11
[M:3/4] z2 (3:2:2[G,B,D]3/2[G,B,D]3/2 z [A,C]/-[G,-A,B,-CD-]/4[G,B,D]/4 | %12
 (9:8:9D,2- D,/4- [D,-D]3/8[D,D]3/4D,3/8-D,3/2-D,3/8[D,D]3/8[D,D]3/4 | %13
 (7:8:7[D,D]3/2-[D,D]3/8[K:treble][CDF]3/4[CD-F]3/4[B,D]-[B,D]/8A,3/4 | %14
[M:5/8][K:bass] G,2- G,/4 z/4 B,,/- B,,/4 z/4 z/ z |[M:1/8] G,,/G,,/ | %16
[M:3/4] (9:8:11B,,-B,,/8B,,-B,,/8 [D,F,D]-[D,F,D]/8[G,D]3/8-[G,D]3/2-[G,D]3/8[=F,B,]3/8[F,B,]3/4 | %17
[M:7/8] z [E,C]-[E,C]/4 z/4 z/ G,- G,2- G,/4 z/4 z/ | %18
[M:13/16] (7:8:9[D,B,]3/2-[D,B,]/8[D,D]3/4-[D,D]/16[D,C]3/2-[D,C]/8 z3/4 z/16 [D,C]3/8- z/32 (7:8:2[D,D]3/8-[D,D]/32 | %19
[M:5/8] [G,,G,]-[G,,G,]- [G,,G,]3 |] %20
V:3
 x6 | [G,,G,]6 | [G,,G,]6 | [D,G,]3 [D,D]3[K:treble] |[M:5/8] x5 |[M:1/8] x |[M:3/4] G,6 | G,6 | %8
 A,4 z2 |[M:5/8][K:bass] x5 |[M:5/32] D,/[D,C]3/4 |[M:3/4] [G,B,]2- [G,B,]/4 z/4 z/ z z .D | x6 | %13
 x2[K:treble] x247/64 |[M:5/8][K:bass] z2 D,3/4 z/4 z2 |[M:1/8] x |[M:3/4] x6 | %17
[M:7/8] [E,C] z G, C,3 [C,A,]/[C,A,]/ |[M:13/16] x13/2 |[M:5/8] x5 |] %20
V:4
 x6 | x6 | x6 | x6 |[M:5/8] x5 |[M:1/8] x |[M:3/4] x6 | x6 | x6 |[M:5/8] x5 |[M:5/32] F/ z/4 z/ | %11
[M:3/4] z2 (3:2:2G3/2G3/2 z2 | D2- D/4 z/4 z/ z z z/ [GB]/ | x6 |[M:5/8] D-D- D3 | %15
[M:1/8] [G,B,D]/[G,B,D]/ |[M:3/4] x6 |[M:7/8] z2 [=Fd]- [Fd]/4 z/4 z/ z z2 |[M:13/16] x13/2 | %19
[M:5/8] x5 |] %20
V:5
 x6 | x6 | x6 | x6 |[M:5/8] x5 |[M:1/8] x |[M:3/4] x6 | x6 | x6 |[M:5/8] x5 |[M:5/32] x5/4 | %11
[M:3/4] G2- G/4 z/4 z/ z z F3/4 z/4 | [FA]4- [FA]-[FA-]/<A/ | x6 |[M:5/8] x5 |[M:1/8] x | %16
[M:3/4] x6 |[M:7/8] [Gc] z2 E3 [EA]/[EA]/ |[M:13/16] x13/2 |[M:5/8] x5 |] %20
V:6
 x6 | x6 | x6 | x6 |[M:5/8] x5 |[M:1/8] x |[M:3/4] x6 | x6 | x6 |[M:5/8] x5 |[M:5/32] x5/4 | %11
[M:3/4] z2 z2 z z/ G/- | G3/4 z/4 z z D2- D/4 z/4 z/ | x6 |[M:5/8] x5 |[M:1/8] x |[M:3/4] x6 | %17
[M:7/8] x7 |[M:13/16] x13/2 |[M:5/8] x5 |] %20
V:7
 x6 | x6 | x6 | x4[K:treble] x2 |[M:5/8] x5 |[M:1/8] x |[M:3/4] x6 | x6 | x6 |[M:5/8][K:bass] x5 | %10
[M:5/32] x5/4 |[M:3/4] x6 | x6 | x2[K:treble] x247/64 |[M:5/8][K:bass] z z2 G,,2 |[M:1/8] x | %16
[M:3/4] x6 |[M:7/8] z2 D,- D,/4 z/4 z/ z z2 |[M:13/16] x13/2 |[M:5/8] x5 |] %20

